packages/tokens/icons/dollars/size16Px.svg

<svg viewBox="0 0 16 16" fill="none" xmlns="http://www.w3.org/2000/svg" width="1em" height="1em"><path d="M12 5.75V5.5V5.5C12 4.11929 10.8807 3 9.5 3L6.5 3C5.11929 3 4 4.11929 4 5.5V5.5C4 6.88071 5.11929 8 6.5 8H9.5C10.8807 8 12 9.11929 12 10.5V10.5C12 11.8807 10.8807 13 9.5 13H6.5C5.11929 13 4 11.8807 4 10.5V10.5L4 10" stroke="currentColor" stroke-linecap="round"/><path d="M8 1V15" stroke="currentColor" stroke-linecap="round"/></svg>

<svg xmlns="http://www.w3.org/2000/svg" fill="none" viewBox="0 0 16 16" width="1em" height="1em"><path stroke="currentColor" stroke-linecap="round" d="M12 5.75V5.5v0A2.5 2.5 0 0 0 9.5 3h-3A2.5 2.5 0 0 0 4 5.5v0A2.5 2.5 0 0 0 6.5 8h3a2.5 2.5 0 0 1 2.5 2.5v0A2.5 2.5 0 0 1 9.5 13h-3A2.5 2.5 0 0 1 4 10.5v0-.5m4-9v14"/></svg>
